src/svgs/filter-2.svg

<?xml version="1.0" encoding="utf-8"?>
<!-- Generated by IcoMoon.io -->
<!DOCTYPE svg PUBLIC "-//W3C//DTD SVG 1.1//EN" "http://www.w3.org/Graphics/SVG/1.1/DTD/svg11.dtd">
<svg version="1.1" xmlns="http://www.w3.org/2000/svg" xmlns:xlink="http://www.w3.org/1999/xlink" width="32" height="32" viewBox="0 0 32 32">
<path d="M1.333 8.133h29.267c0.533 0 0.933-0.4 0.933-0.933s-0.4-0.933-0.933-0.933h-29.267c-0.533 0-0.933 0.4-0.933 0.933s0.4 0.933 0.933 0.933zM1.333 17.533h22.667c0.533 0 0.933-0.4 0.933-0.933s-0.4-0.933-0.933-0.933h-22.667c-0.533 0-0.933 0.4-0.933 0.933s0.4 0.933 0.933 0.933zM1.333 27h16.133c0.533 0 0.933-0.4 0.933-0.933s-0.4-0.933-0.933-0.933h-16.133c-0.533 0-0.933 0.4-0.933 0.933s0.4 0.933 0.933 0.933z"></path>
</svg>

<svg xmlns="http://www.w3.org/2000/svg" width="32" height="32" viewBox="0 0 32 32">
    <path d="M1.333 8.133H30.6c.533 0 .933-.4.933-.933s-.4-.933-.933-.933H1.333C.8 6.267.4 6.667.4 7.2s.4.933.933.933zm0 9.4H24c.533 0 .933-.4.933-.933s-.4-.933-.933-.933H1.333c-.533 0-.933.4-.933.933s.4.933.933.933zm0 9.467h16.133c.533 0 .933-.4.933-.933s-.4-.933-.933-.933H1.333c-.533 0-.933.4-.933.933s.4.933.933.933z"/>
</svg>
